X: 21131
Q: "Andantino."
M: C
L: 1/16
K: D
d6 f2 (f2e2)(g2f2) | (f2e2)(d2c2) d6A2 |\
d6 f2 (f2e2)(g2f2) | (f2e2)(d2c2) d6 A2 |\
(Bcdc) (edcB) (A2d2)(f2a2) |
(g2e2)(B2c2) d6 A2 |\
e2A2^G2B2 A6 f2 | e2A2^G2B2 A6 ^e2 |\
f2(c2d2)^A2 B2F2HG2 G2 |\
g6 f2 e6 d2 | c6 d2 e4 z2A2 |\
g6 f2 e6 d2 | c6 d2 HA6 A2 |
d6 f2 (f2e2)(g2f2) | (f2e2)(d2c2) d6 A2 |\
d6 f2 (f2e2)(g2f2) | (f2e2)(d2c2) d6 A2 |\
(Bcdc) (edcB) A2d2f2a2 | g2e2(B2c2) d4 |]


